frontend/public/svg/interface/tree-2.svg

<svg width="160" height="142" viewBox="0 0 160 142" fill="none" xmlns="http://www.w3.org/2000/svg">
<g clip-path="url(#clip0)">
<path d="M151.755 101.493C150.428 101.534 149.068 101.522 147.753 101.513C147.241 101.509 146.728 101.505 146.214 101.504C146.181 101.018 146.148 100.568 146.118 100.14C146.045 99.1299 145.982 98.2571 145.956 97.3856C145.892 95.1513 145.822 92.9178 145.745 90.6842C145.55 84.6713 145.342 78.4546 145.333 72.3421C145.325 68.015 145.156 67.4568 140.787 67.2614C140.225 67.2366 139.661 67.2262 139.1 67.2138C136.79 67.2177 134.48 67.2177 132.171 67.2138C117.339 67.2099 101.991 67.2047 86.9262 68.5394C86.2719 68.585 85.6151 68.5934 84.9602 68.5648C84.738 68.5595 84.5138 68.5543 84.2864 68.5511L82.5498 38.8572C82.8195 38.8384 83.0835 38.8182 83.3435 38.7986C84.1163 38.74 84.8422 38.6853 85.5714 38.6749C86.614 38.6599 87.6482 38.6631 88.6856 38.6657C90.1909 38.6703 91.7437 38.6749 93.2738 38.6221C97.3602 38.4821 98.8433 37.1187 98.943 33.415C99.2167 22.993 99.2441 14.3916 99.0317 6.35551C98.9737 4.18513 98.4413 2.66677 97.4026 1.71446C96.257 0.663788 94.4663 0.24886 91.775 0.411704C84.1072 0.867669 76.5358 1.38879 69.4368 1.88839L68.7448 1.93658C66.6361 2.03784 64.5362 2.26908 62.4563 2.62898C60.5835 2.99375 59.5637 4.29782 59.5839 6.2995C59.6223 10.0436 59.6243 13.8522 59.6263 17.5344C59.6263 22.3937 59.6315 27.4191 59.7188 32.3611C59.8041 37.1813 60.6832 37.744 65.1313 38.4638C65.9155 38.5817 66.7058 38.6556 67.4982 38.6853C69.8258 38.7921 72.1535 38.8885 74.5405 38.9875L76.9333 39.0872V68.9152C76.7163 68.9471 76.5006 68.9803 76.2816 69.0155C75.6398 69.1308 74.9914 69.2096 74.3404 69.2513C58.9785 69.9405 43.617 70.6159 28.2557 71.2777C26.9811 71.3331 25.7058 71.3637 24.4306 71.395C23.3671 71.421 22.303 71.4464 21.2375 71.4868C18.8538 71.5761 17.5108 72.0164 16.7503 72.9609C16.0114 73.8774 15.8602 75.2798 16.259 77.5075C16.3509 78.0221 16.4545 78.536 16.5594 79.0487C16.7399 79.9365 16.9263 80.8543 17.0416 81.7603C17.9238 88.4851 18.1536 95.279 17.7278 102.048C16.7125 102.048 15.7123 102.046 14.727 102.043C12.2873 102.038 9.92116 102.032 7.55441 102.055C3.91305 102.092 2.40125 103.437 1.97768 107.02C0.919127 116.238 0.880202 125.546 1.86167 134.773C2.13341 137.411 3.30052 138.645 5.89078 139.033C7.23858 139.207 8.60009 139.251 9.95635 139.163C14.3119 138.962 18.6673 138.753 23.0224 138.534C27.6855 138.303 32.3484 138.08 37.0111 137.862C39.5975 137.744 41.4175 137.049 42.5748 135.737C43.7321 134.425 44.1889 132.546 43.9837 129.986C43.7771 127.408 43.4702 124.02 42.9293 120.668C42.0339 115.115 41.1314 110.166 40.1709 105.537C39.5388 102.486 38.1723 101.354 35.2797 101.508C32.9012 101.633 30.4876 101.605 28.1508 101.577C27.2476 101.566 26.349 101.555 25.4588 101.553L22.6529 77.3421L78.0124 75.7312V99.9624C77.5295 99.9943 77.074 100.028 76.6387 100.056C75.5616 100.13 74.6069 100.196 73.651 100.236C72.145 100.301 70.6384 100.356 69.1319 100.412C66.4517 100.512 63.6801 100.614 60.9549 100.768C59.6145 100.844 58.5726 101.388 58.1666 102.225C58.0188 102.552 57.9649 102.914 58.0109 103.271C58.0569 103.628 58.2011 103.964 58.4272 104.244C59.4607 105.721 59.4295 107.225 59.3962 108.818C59.3891 109.144 59.3819 109.478 59.3845 109.809C59.4014 112.088 59.3943 114.368 59.3845 116.648C59.3721 120.656 59.3591 124.8 59.4835 128.875C59.5997 130.634 59.8937 132.377 60.3613 134.077C60.5203 134.74 60.6793 135.403 60.8175 136.066C61.4965 139.343 64.2379 140.046 66.2399 140.29C66.9932 140.365 67.751 140.391 68.5082 140.368C68.7689 140.368 69.0256 140.364 69.2869 140.368L70.3211 140.374C79.1169 140.434 87.914 140.489 96.7125 140.539C97.6241 140.559 98.5364 140.5 99.4383 140.36C101.177 140.059 102.41 139.344 103.102 138.235C103.807 137.108 103.907 135.649 103.399 133.898C103.149 132.875 103.033 131.824 103.056 130.772C103.009 128.115 102.987 125.457 102.966 122.799C102.921 117.313 102.876 111.641 102.59 106.07C102.32 100.813 100.295 99.9715 95.5298 100.008C93.277 100.022 91.0256 100.019 88.6133 100.015H85.4202L83.971 75.0166L140.012 73.5791L138.774 101.388H136.645C135.006 101.384 133.505 101.38 132.006 101.395C130.994 101.407 129.98 101.405 128.972 101.406C126.33 101.401 123.62 101.406 120.953 101.608C117.488 101.874 116.423 103.123 116.572 106.748C116.694 109.723 116.813 111.989 116.959 114.096C117.07 115.698 117.179 117.301 117.285 118.905C117.598 123.668 117.923 128.593 118.399 133.424C118.886 138.364 121.032 140.376 126.05 140.6L131.612 140.849C138.443 141.156 145.274 141.454 152.106 141.743C152.271 141.749 152.436 141.753 152.601 141.753C153.466 141.757 154.329 141.658 155.171 141.46C157.299 140.939 158.458 139.831 158.616 138.156C158.954 134.574 159.184 131.006 159.297 127.554C159.379 125.087 159.368 122.579 159.357 120.154C159.352 119.054 159.347 117.953 159.351 116.853C159.354 115.951 159.375 115.049 159.395 114.145C159.44 112.176 159.486 110.141 159.343 108.144C158.999 103.391 156.657 101.347 151.755 101.493ZM64.3585 106.127H95.288V133.871L66.0633 134.79L64.3585 106.127ZM7.07152 107.238H33.072C33.3789 109.452 33.7607 111.71 34.1302 113.898C35.0471 119.325 35.9946 124.935 36.0337 130.899L8.19562 132.577C6.83044 125.276 6.49221 117.66 7.07152 107.238ZM92.8443 8.41583C92.6612 14.5765 92.4631 20.7373 92.2579 27.0452L92.1073 31.7351L91.9118 31.7488C83.277 32.3552 74.3482 32.9864 65.4389 32.8959L64.2216 6.5568H92.6684C92.6906 6.747 92.714 6.92743 92.7336 7.0994C92.8053 7.53458 92.8424 7.97478 92.8443 8.41583ZM151.895 107.936V134.023H124.947L121.858 106.527C131.891 106.289 141.928 106.76 151.895 107.936Z" fill="black"/>
</g>
<defs>
<clipPath id="clip0">
<rect width="159" height="142" fill="white" transform="translate(0.777344)"/>
</clipPath>
</defs>
</svg>

<svg xmlns="http://www.w3.org/2000/svg" width="160" height="142" fill="none" viewBox="0 0 160 142"><g clip-path="url(#a)"><path fill="#000" d="M151.755 101.493c-1.327.041-2.687.029-4.002.02a262 262 0 0 0-1.539-.009c-.033-.486-.066-.936-.096-1.364a65 65 0 0 1-.162-2.754 1151 1151 0 0 0-.211-6.702c-.195-6.013-.403-12.23-.412-18.342-.008-4.327-.177-4.885-4.546-5.08-.562-.025-1.126-.036-1.687-.048q-3.465.006-6.929 0c-14.832-.004-30.18-.01-45.245 1.325a17 17 0 0 1-1.966.026l-.674-.014-1.736-29.694.794-.058a36 36 0 0 1 2.227-.124c1.043-.015 2.077-.012 3.115-.01 1.505.005 3.058.01 4.588-.043 4.086-.14 5.57-1.503 5.669-5.207.274-10.422.301-19.023.089-27.06-.058-2.17-.59-3.688-1.63-4.64C96.258.663 94.467.248 91.776.411c-7.668.456-15.24.977-22.338 1.476l-.692.049a51 51 0 0 0-6.289.692c-1.873.365-2.892 1.669-2.872 3.67.038 3.745.04 7.553.042 11.235 0 4.86.006 9.885.093 14.827.085 4.82.964 5.383 5.412 6.103q1.177.177 2.367.221c2.328.107 4.655.203 7.042.302l2.393.1v29.828q-.324.048-.651.1-.964.174-1.942.236-23.043 1.034-46.084 2.027c-1.275.055-2.55.086-3.825.117-1.064.026-2.128.051-3.193.092-2.384.09-3.727.53-4.488 1.474-.739.916-.89 2.319-.491 4.546.092.515.195 1.029.3 1.542.18.887.367 1.805.483 2.711a105 105 0 0 1 .686 20.288q-1.524 0-3.001-.005c-2.44-.005-4.806-.011-7.173.012-3.641.037-5.153 1.382-5.576 4.965a126.2 126.2 0 0 0-.116 27.753c.271 2.638 1.439 3.872 4.029 4.26 1.348.174 2.71.218 4.065.13q6.534-.301 13.066-.629 6.995-.346 13.99-.672c2.585-.118 4.405-.813 5.563-2.125s1.614-3.191 1.409-5.751c-.207-2.578-.514-5.966-1.055-9.318-.895-5.553-1.798-10.502-2.758-15.131-.632-3.051-1.999-4.183-4.891-4.029-2.379.125-4.792.097-7.13.069-.902-.011-1.801-.022-2.691-.024l-2.806-24.21 55.36-1.612v24.231c-.484.032-.939.066-1.374.094-1.077.074-2.032.14-2.988.18-1.506.065-3.013.12-4.52.176-2.68.1-5.45.202-8.176.356-1.34.076-2.382.62-2.788 1.457a1.94 1.94 0 0 0 .26 2.019c1.034 1.477 1.002 2.981.97 4.574-.008.326-.015.66-.012.991.016 2.279.01 4.559 0 6.839-.013 4.008-.026 8.152.099 12.227a26 26 0 0 0 .877 5.202c.16.663.318 1.326.457 1.989.678 3.277 3.42 3.98 5.422 4.224q1.131.112 2.268.078c.26 0 .518-.004.779 0l1.034.006q13.194.09 26.392.165c.911.02 1.823-.039 2.725-.179 1.739-.301 2.972-1.016 3.664-2.125.705-1.127.805-2.586.297-4.337a12 12 0 0 1-.343-3.126 815 815 0 0 1-.09-7.973c-.045-5.486-.09-11.158-.376-16.729-.27-5.257-2.295-6.098-7.06-6.062-2.253.014-4.504.011-6.917.007H85.42l-1.449-24.998 56.041-1.438-1.238 27.809h-2.129c-1.639-.004-3.14-.008-4.639.007-1.012.012-2.026.01-3.034.011-2.642-.005-5.352 0-8.019.202-3.465.266-4.53 1.515-4.381 5.14.122 2.975.241 5.241.387 7.348q.167 2.403.326 4.809c.313 4.763.638 9.688 1.114 14.519.487 4.94 2.633 6.952 7.651 7.176l5.562.249q10.246.46 20.494.894.248.01.495.01c.865.004 1.728-.095 2.57-.293 2.128-.521 3.287-1.629 3.445-3.304.338-3.582.568-7.15.681-10.602.082-2.467.071-4.975.06-7.4-.005-1.1-.01-2.201-.006-3.301.003-.902.024-1.804.044-2.708.045-1.969.091-4.004-.052-6.001-.344-4.753-2.686-6.797-7.588-6.651m-87.396 4.634h30.929v27.744l-29.225.919zm-57.287 1.111h26c.307 2.214.689 4.472 1.058 6.66.917 5.427 1.865 11.037 1.904 17.001l-27.838 1.678c-1.366-7.301-1.704-14.917-1.124-25.339M92.844 8.416a6633 6633 0 0 1-.586 18.63l-.15 4.69-.196.013c-8.635.606-17.564 1.237-26.473 1.147l-1.217-26.34h28.446l.066.543q.107.655.11 1.317m59.051 99.52v26.087h-26.948l-3.089-27.496a213 213 0 0 1 30.037 1.409"/></g><defs><clipPath id="a"><path fill="#fff" d="M.777 0h159v142h-159z"/></clipPath></defs></svg>
